X:753
T:Not a Minuet
C:Colin Hume, 2019
L:1/4
M:2/2
R:Reel
Q:1/2=106
%%MIDI program 56     Trumpet
%%MIDI chordprog 57   Trombone
%%MIDI bassprog 57    Trombone
%%MIDI gchord bb
K:G
|: "G"G2 D2 | G>A Bc | "D"A2D2 | "D7"A2D2 | A>B cd | "G"B2 G2 |
"C"e2c2 | "Am"e>d cB | "D"A2 D2 | "Am"E>F GA | "G/D"B>c "D7"AF | "G"G2 G,2 :|
N:Replace by blank line and X field
T:Maybe a Minuet
C:Colin Hume, 2019
L:1/4
M:3/2
R:Minuet
%%MIDI gchord czc
%%MIDI beat 100 95 80
S:Colin Hume's website,  colinhume.com  - chords can also be printed below the stave.
Q:1/2=106
K:G
|: "G"G2 D2 G2 | "D"A>B cd "G"BG | "D7"A2 D2 A2 | "G"B>c dc BG |
"C"e2 c2 e2 | "Am"e>d cB "D"AD | "Am"E>F GA Bc | "D7"A3G "G"G2 :|

